X:1
P: Lady Ann Hope
C: Kerr's First, arr. T. Traub 10-26-98
R: strathspey
M: 4/4
K: G
L: 1/8
|: D|"G"G<GG>B "Am"A>G E2|"C"c<cc>e "G"d>c B<g|"G"BG "D7"c>A"G"B>G|"Am"E>A "D7"G/F/E/D/ "G"G2 G :|
d|"G"g2 d>g B>gd>f|"G"g<gb>g "C"e2 e>f|"G"(3gab "D"(3agf "C"(3efg "G"(3dcB|"C"(3cde "D"(3def "G"(3ged "D"(3cBA|
"G"G<gd>g B>gd>f|"Em"g<gb>g "C"e2 e>f| "G"(3gab "D"(3agf "Em"(3gfe "G"(3dcB|"C"(3cde "D"(3def "G"g2 g<b |]
